papirus/32x32/apps/preferences-desktop-icons.svg

<svg height="32" width="32" xmlns="http://www.w3.org/2000/svg"><rect fill="#d951c4" height="28" rx="1.4" transform="matrix(0 -1 -1 0 0 0)" width="28" x="-30" y="-30"/><path d="m3.4003906 2c-.7756 0-1.4003906.6247906-1.4003906 1.4003906v1c0-.7756.6247906-1.4003906 1.4003906-1.4003906h25.1992184c.7756 0 1.400391.6247906 1.400391 1.4003906v-1c0-.7756-.624791-1.4003906-1.400391-1.4003906z" fill="#fff" opacity=".2"/><path d="m2 27.599609v1c0 .7756.6247906 1.400391 1.4003906 1.400391h25.1992184c.7756 0 1.400391-.624791 1.400391-1.400391v-1c0 .7756-.624791 1.400391-1.400391 1.400391h-25.1992184c-.7756 0-1.4003906-.624791-1.4003906-1.400391z" opacity=".3"/><g opacity=".2" transform="translate(0 1)"><rect height="6" opacity="1" rx=".75" width="6" x="5" y="5"/><rect height="6" opacity="1" rx=".75" width="6" x="13" y="5"/><rect height="6" opacity="1" rx=".75" width="6" x="5" y="13.000002"/><rect height="6" opacity="1" rx=".75" width="6" x="13" y="13.000002"/><rect height="6" opacity="1" rx=".75" width="6" x="5" y="21"/></g><g fill="#fff"><rect height="6" rx=".75" width="6" x="5" y="5"/><rect height="6" rx=".75" width="6" x="13" y="5"/><rect height="6" rx=".75" width="6" x="5" y="13.000002"/><rect height="6" rx=".75" width="6" x="13" y="13.000002"/><rect height="6" rx=".75" width="6" x="5" y="21"/></g></svg>

<?xml version="1.0" encoding="UTF-8" standalone="no"?>
<!-- Created with Inkscape (http://www.inkscape.org/) -->

<svg
   xmlns:dc="http://purl.org/dc/elements/1.1/"
   xmlns:cc="http://creativecommons.org/ns#"
   xmlns:rdf="http://www.w3.org/1999/02/22-rdf-syntax-ns#"
   xmlns:svg="http://www.w3.org/2000/svg"
   xmlns="http://www.w3.org/2000/svg"
   xmlns:sodipodi="http://sodipodi.sourceforge.net/DTD/sodipodi-0.dtd"
   xmlns:inkscape="http://www.inkscape.org/namespaces/inkscape"
   id="svg2817"
   height="32"
   width="32"
   version="1.0"
   inkscape:version="0.91 r13725"
   sodipodi:docname="preferences-desktop-icons.svg">
  <sodipodi:namedview
     pagecolor="#ffffff"
     bordercolor="#666666"
     borderopacity="1"
     objecttolerance="10"
     gridtolerance="10"
     guidetolerance="10"
     inkscape:pageopacity="0"
     inkscape:pageshadow="2"
     inkscape:window-width="1600"
     inkscape:window-height="849"
     id="namedview21"
     showgrid="false"
     inkscape:zoom="7.03"
     inkscape:cx="24"
     inkscape:cy="10.860629"
     inkscape:window-x="0"
     inkscape:window-y="0"
     inkscape:window-maximized="1"
     inkscape:current-layer="svg2817" />
  <metadata
     id="metadata57">
    <rdf:RDF>
      <cc:Work
         rdf:about="">
        <dc:format>image/svg+xml</dc:format>
        <dc:type
           rdf:resource="http://purl.org/dc/dcmitype/StillImage" />
        <dc:title></dc:title>
      </cc:Work>
    </rdf:RDF>
  </metadata>
  <defs
     id="defs2819" />
  <rect
     style="fill:#d951c4"
     id="rect4203-6"
     transform="matrix(0,-1,-1,0,0,0)"
     rx="1.4"
     ry="1.4"
     height="28"
     width="28"
     y="-30"
     x="-30" />
  <path
     style="fill:#ffffff;fill-opacity:1;opacity:0.2"
     d="M 3.4003906 2 C 2.6247906 2 2 2.6247906 2 3.4003906 L 2 4.4003906 C 2 3.6247906 2.6247906 3 3.4003906 3 L 28.599609 3 C 29.375209 3 30 3.6247906 30 4.4003906 L 30 3.4003906 C 30 2.6247906 29.375209 2 28.599609 2 L 3.4003906 2 z "
     id="rect4375" />
  <path
     style="fill:#000000;fill-opacity:1;opacity:0.3"
     d="M 2 27.599609 L 2 28.599609 C 2 29.375209 2.6247906 30 3.4003906 30 L 28.599609 30 C 29.375209 30 30 29.375209 30 28.599609 L 30 27.599609 C 30 28.375209 29.375209 29 28.599609 29 L 3.4003906 29 C 2.6247906 29 2 28.375209 2 27.599609 z "
     id="rect4380" />
  <g
     style="opacity:0.2;fill:#000000;fill-opacity:1"
     id="g4419"
     transform="translate(0,1)">
    <rect
       style="opacity:1;fill:#000000;fill-opacity:1;stroke:none;stroke-width:4;stroke-linecap:round;stroke-linejoin:round;stroke-miterlimit:4;stroke-dasharray:none;stroke-opacity:1"
       id="rect4421"
       width="6"
       height="6"
       x="5"
       y="5"
       ry="0.75"
       rx="0.75" />
    <rect
       rx="0.75"
       ry="0.75"
       y="5"
       x="13"
       height="6"
       width="6"
       id="rect4423"
       style="opacity:1;fill:#000000;fill-opacity:1;stroke:none;stroke-width:4;stroke-linecap:round;stroke-linejoin:round;stroke-miterlimit:4;stroke-dasharray:none;stroke-opacity:1" />
    <rect
       rx="0.75"
       ry="0.75"
       y="13.000002"
       x="5"
       height="6"
       width="6"
       id="rect4425"
       style="opacity:1;fill:#000000;fill-opacity:1;stroke:none;stroke-width:4;stroke-linecap:round;stroke-linejoin:round;stroke-miterlimit:4;stroke-dasharray:none;stroke-opacity:1" />
    <rect
       style="opacity:1;fill:#000000;fill-opacity:1;stroke:none;stroke-width:4;stroke-linecap:round;stroke-linejoin:round;stroke-miterlimit:4;stroke-dasharray:none;stroke-opacity:1"
       id="rect4427"
       width="6"
       height="6"
       x="13"
       y="13.000002"
       ry="0.75"
       rx="0.75" />
    <rect
       style="opacity:1;fill:#000000;fill-opacity:1;stroke:none;stroke-width:4;stroke-linecap:round;stroke-linejoin:round;stroke-miterlimit:4;stroke-dasharray:none;stroke-opacity:1"
       id="rect4429"
       width="6"
       height="6"
       x="5"
       y="21"
       ry="0.75"
       rx="0.75" />
  </g>
  <g
     id="g4412"
     style="fill:#ffffff;fill-opacity:1">
    <rect
       rx="0.75"
       ry="0.75"
       y="5"
       x="5"
       height="6"
       width="6"
       id="rect4163"
       style="opacity:1;fill:#ffffff;fill-opacity:1;stroke:none;stroke-width:4;stroke-linecap:round;stroke-linejoin:round;stroke-miterlimit:4;stroke-dasharray:none;stroke-opacity:1" />
    <rect
       style="opacity:1;fill:#ffffff;fill-opacity:1;stroke:none;stroke-width:4;stroke-linecap:round;stroke-linejoin:round;stroke-miterlimit:4;stroke-dasharray:none;stroke-opacity:1"
       id="rect4169"
       width="6"
       height="6"
       x="13"
       y="5"
       ry="0.75"
       rx="0.75" />
    <rect
       style="opacity:1;fill:#ffffff;fill-opacity:1;stroke:none;stroke-width:4;stroke-linecap:round;stroke-linejoin:round;stroke-miterlimit:4;stroke-dasharray:none;stroke-opacity:1"
       id="rect4390"
       width="6"
       height="6"
       x="5"
       y="13.000002"
       ry="0.75"
       rx="0.75" />
    <rect
       rx="0.75"
       ry="0.75"
       y="13.000002"
       x="13"
       height="6"
       width="6"
       id="rect4392"
       style="opacity:1;fill:#ffffff;fill-opacity:1;stroke:none;stroke-width:4;stroke-linecap:round;stroke-linejoin:round;stroke-miterlimit:4;stroke-dasharray:none;stroke-opacity:1" />
    <rect
       rx="0.75"
       ry="0.75"
       y="21"
       x="5"
       height="6"
       width="6"
       id="rect4394"
       style="opacity:1;fill:#ffffff;fill-opacity:1;stroke:none;stroke-width:4;stroke-linecap:round;stroke-linejoin:round;stroke-miterlimit:4;stroke-dasharray:none;stroke-opacity:1" />
  </g>
</svg>
